assets/icons/scroll-indicator.svg

<svg id="scroll_indicator" xmlns="http://www.w3.org/2000/svg" style="isolation:isolate" viewBox="1.599 -1.6 28.801 32" width="100" height="100" fill="currentColor"><path d="M30.401 1.66c0-.868-2.681-3.259-3.574-3.259-.894 0-9.564 12.298-10.196 12.298-.63 0-9.8-12.299-10.616-12.299-.816 0-4.416 3.995-4.416 4.731 0 .736 14.216 13.77 15.137 13.77.92 0 13.665-14.375 13.665-15.241z"/><path d="M30.4 15.161c0-.868-2.68-3.26-3.573-3.26-.894 0-9.564 12.298-10.196 12.298-.63 0-9.8-12.299-10.616-12.299-.815 0-4.414 3.996-4.414 4.73 0 .736 14.216 13.771 15.136 13.771.919 0 13.663-14.375 13.663-15.24z"/></svg>

<?xml version="1.0" encoding="UTF-8" standalone="no"?>
<!-- Generator: Gravit.io -->
<svg id="scroll_indicator" xmlns="http://www.w3.org/2000/svg" xmlns:xlink="http://www.w3.org/1999/xlink" style="isolation:isolate" viewBox="1.599 -1.6 28.801 32" width="100" height="100" fill="currentColor">
<g>
<g>
<path d=" M 30.401 1.66 C 30.401 0.792 27.72 -1.599 26.827 -1.599 C 25.933 -1.599 17.263 10.699 16.631 10.699 C 16.001 10.699 6.831 -1.6 6.015 -1.6 C 5.199 -1.6 1.599 2.395 1.599 3.131 C 1.599 3.867 15.815 16.901 16.736 16.901 C 17.656 16.901 30.401 2.526 30.401 1.66 Z "/>
<path d=" M 30.4 15.161 C 30.4 14.293 27.72 11.901 26.827 11.901 C 25.933 11.901 17.263 24.199 16.631 24.199 C 16.001 24.199 6.831 11.9 6.015 11.9 C 5.2 11.9 1.601 15.896 1.601 16.63 C 1.601 17.366 15.817 30.401 16.737 30.401 C 17.656 30.401 30.4 16.026 30.4 15.161 Z " />
</g></g></svg>
